packages/ffe-icons/icons/filled/md/nest_doorbell_visitor.svg

<svg xmlns="http://www.w3.org/2000/svg" height="24" viewBox="0 -960 960 960" width="24"><path d="M480-90q-78.769 0-134.384-55.576Q290.001-201.15 290.001-280v-400q0-78.85 55.558-134.424 55.558-55.575 134.384-55.575t134.441 55.575Q669.999-758.85 669.999-680v200H552.307q-29.827 0-51.067 21.24T480-407.693v10.001q-32.048 0-54.87 22.822-22.822 22.822-22.822 54.87 0 31.077 22.822 53.413 22.822 22.337 54.87 24.279v152.307Zm90.001 0v-23.001q0-48.153 47.115-68.076Q664.231-201 720-201t102.884 19.923q47.115 19.923 47.115 68.076v23H570.001ZM720-260.002q-29.154 0-49.576-20.423-20.423-20.423-20.423-49.577 0-29.153 20.423-49.576Q690.846-400 720-400t49.576 20.423q20.423 20.423 20.423 49.576 0 29.154-20.423 49.577-20.422 20.423-49.576 20.423Zm-240-17.691q-17.769 0-30.039-12.269-12.269-12.27-12.269-30.039 0-17.769 12.269-30.039 12.27-12.269 30.039-12.269 17.769 0 30.039 12.269 12.269 12.27 12.269 30.039 0 17.769-12.269 30.039-12.27 12.269-30.039 12.269Zm0-284.616q32.048 0 54.87-22.822 22.822-22.822 22.822-54.87t-22.822-54.87q-22.822-22.822-54.87-22.822t-54.87 22.822q-22.822 22.822-22.822 54.87t22.822 54.87q22.822 22.822 54.87 22.822Z"/></svg>

<svg xmlns="http://www.w3.org/2000/svg" height="24" viewBox="0 -960 960 960" width="24"><path d="M480-90q-78.77 0-134.38-55.58Q290-201.15 290-280v-400q0-78.85 55.56-134.42Q401.12-870 479.94-870q78.83 0 134.44 55.58Q670-758.85 670-680v200H552.31q-29.83 0-51.07 21.24Q480-437.52 480-407.69v10q-32.05 0-54.87 22.82T402.31-320q0 31.08 22.82 53.41 22.82 22.34 54.87 24.28V-90Zm90 0v-23q0-48.15 47.12-68.08Q664.23-201 720-201q55.77 0 102.88 19.92Q870-161.15 870-113v23H570Zm150-170q-29.15 0-49.58-20.42Q650-300.85 650-330t20.42-49.58Q690.85-400 720-400t49.58 20.42Q790-359.15 790-330t-20.42 49.58Q749.15-260 720-260Zm-240-17.69q-17.77 0-30.04-12.27T437.69-320q0-17.77 12.27-30.04T480-362.31q17.77 0 30.04 12.27T522.31-320q0 17.77-12.27 30.04T480-277.69Zm0-284.62q32.05 0 54.87-22.82T557.69-640q0-32.05-22.82-54.87T480-717.69q-32.05 0-54.87 22.82T402.31-640q0 32.05 22.82 54.87T480-562.31Z"/></svg>
